X:723
T:Boys of the Town
T:Tarmon's Polka
B:Ceol Rince Na hEireann Book 3
Z:Nigel Gatherer
M:2/4
L:1/8
K:G
DG GB | A/B/A/G/ ED | G2 AG/A/ | BA A2  |
DG GB | A/B/A/G/ ED | G2 AG/A/ | BG G2 ||
Bd cB | AG       ED | G2 AG/A/ | BA A2  |
Bd cB | AG       ED | G2 AG/A/ | BG G2 ||
<end>
<start>
